img/ios.svg

<svg width="30" height="40" viewBox="0 0 30 40" fill="none" xmlns="http://www.w3.org/2000/svg">
<path fill-rule="evenodd" clip-rule="evenodd" d="M23.5248 0.0610704C19.7652 0.622011 17.125 2.3566 15.8438 5.10754C15.3168 6.23901 15.0068 7.62395 15.0068 8.84708V9.193L15.3551 9.16578C16.5022 9.07609 17.7909 8.78592 18.7576 8.3997C21.9018 7.14347 23.7674 4.43438 24.0054 0.779627C24.0465 0.148185 24.0354 -0.00767459 23.9498 0.000285785C23.9239 0.00273513 23.7327 0.0300453 23.5248 0.0610704ZM21.7135 12.2702C20.5441 12.3456 20.067 12.4645 17.4949 13.3215L15.2266 14.0773L13.9923 13.6672C13.3134 13.4416 12.4336 13.1488 12.0373 13.0166C10.7943 12.602 9.87402 12.4588 8.71799 12.5002C5.88747 12.6018 3.68468 13.9679 1.89296 16.7331C-0.577826 20.5463 -0.629888 25.3794 1.7369 31.2142C3.24326 34.9278 5.1885 37.7645 7.15399 39.1138C8.27037 39.8801 9.31368 40.1308 10.5823 39.9377C11.0929 39.8599 11.5767 39.7049 12.3185 39.3816C13.7099 38.775 14.3296 38.6159 15.6329 38.5309C16.1753 38.4955 16.3382 38.499 16.6479 38.553C17.3252 38.6712 18.3211 38.9421 19.2657 39.2652C20.9405 39.8382 21.1999 39.8975 22.0121 39.8938C22.4978 39.8915 22.6491 39.8748 22.9673 39.7879C23.905 39.5319 24.749 38.9644 25.6899 37.9573C27.2509 36.2866 28.7433 33.7474 29.7452 31.0578C30.0178 30.3258 30.0295 30.2862 29.9723 30.2862C29.8985 30.2862 29.1661 29.8973 28.8098 29.669C26.9427 28.4722 25.7172 26.7334 25.2909 24.6759C25.207 24.2711 25.1851 24.0323 25.1677 23.3375C25.1442 22.3936 25.1854 21.846 25.3388 21.064C25.6666 19.3924 26.4505 17.9319 27.5446 16.9544C27.9115 16.6266 28.4632 16.2489 28.8015 16.094C28.9409 16.0301 29.0555 15.9687 29.0561 15.9575C29.0589 15.9036 28.4973 15.1821 28.2116 14.8726C26.5416 13.0632 24.1665 12.112 21.7135 12.2702Z" fill="white"/>
</svg>

<svg width="30" height="40" fill="none" xmlns="http://www.w3.org/2000/svg"><path fill-rule="evenodd" clip-rule="evenodd" d="M23.525.061c-3.76.561-6.4 2.296-7.681 5.047a9.261 9.261 0 0 0-.837 3.74v.345l.348-.027c1.147-.09 2.436-.38 3.403-.766 3.144-1.257 5.01-3.966 5.247-7.62.042-.632.03-.788-.055-.78-.026.003-.217.03-.425.061Zm-1.811 12.21c-1.17.075-1.647.193-4.22 1.05l-2.267.756-1.235-.41-1.955-.65c-1.243-.415-2.163-.558-3.319-.517-2.83.102-5.033 1.468-6.825 4.233-2.47 3.813-2.523 8.646-.156 14.481 1.506 3.714 3.452 6.55 5.417 7.9 1.116.766 2.16 1.017 3.428.824.51-.078.995-.233 1.736-.556 1.392-.607 2.012-.766 3.315-.851.542-.035.705-.032 1.015.022.677.118 1.673.39 2.618.712 1.675.573 1.934.633 2.746.629.486-.002.637-.02.955-.106.938-.256 1.782-.824 2.723-1.83 1.56-1.671 3.053-4.21 4.055-6.9.273-.732.284-.772.227-.772-.074 0-.806-.389-1.162-.617-1.867-1.197-3.093-2.936-3.52-4.993-.083-.405-.105-.644-.122-1.338-.024-.944.017-1.492.17-2.274.329-1.672 1.113-3.132 2.207-4.11.366-.327.918-.705 1.256-.86.14-.064.255-.125.255-.137.003-.053-.559-.775-.844-1.084a8.11 8.11 0 0 0-6.498-2.603Z" fill="#fff"/></svg>
